src/24x24/places/folder-gruvbox-mix-red-network.svg

<?xml version="1.0" encoding="UTF-8"?>
<svg width="24" height="24" version="1" xmlns="http://www.w3.org/2000/svg">
 <rect x="2" y="9.5" width="20" height="12" rx="1" ry="1" opacity=".2"/>
 <path d="m2 17c0 0.554 0.446 1 1 1h18c0.554 0 1-0.446 1-1v-11c0-0.554-0.446-1-1-1h-9c-1.5 0-2-2-3.5-2h-5.5c-0.554 0-1 0.446-1 1" fill="#af2528"/>
 <rect x="2" y="8.5" width="20" height="12" rx="1" ry="1" opacity=".2"/>
 <rect x="4" y="7" width="16" height="8" rx="1" ry="1" fill="#f1d9b5"/>
 <rect x="2" y="9" width="20" height="12" rx="1" ry="1" fill="#f2594b"/>
 <path d="m3 3c-0.554 0-1 0.446-1 1v0.5c0-0.554 0.446-1 1-1h5.5c1.5 0 2 2 3.5 2h9c0.554 0 1 0.446 1 1v-0.5c0-0.554-0.446-1-1-1h-9c-1.5 0-2-2-3.5-2z" fill="#f1d9b5" opacity=".1"/>
 <path d="m12 11c-2.2092 0-4 1.791-4 4s1.7908 4 4 4c2.209 0 4-1.791 4-4s-1.791-4-4-4zm-0.286 1.107c0.038-4e-3 0.087 2e-3 0.125 0 5e-3 0.018-0.028 0.083-0.071 0.179-0.278 0.606-0.294 1.316-0.036 1.696 0.047 0.069 0.089 0.134 0.089 0.143 0 8e-3 -0.05 0.018-0.107 0.018-0.133 0-0.26-0.082-0.518-0.286-0.114-0.091-0.263-0.167-0.321-0.179-0.091-0.018-0.115-0.01-0.232 0.108-0.109 0.109-0.143 0.168-0.143 0.267 0 0.379 0.45 0.68 1.286 0.858 1.135 0.24 1.415 0.456 1.446 1.053 0.039 0.749-0.359 1.313-1.232 1.75-0.104 0.052-0.171 0.072-0.214 0.089-0.02-1e-3 -0.035 2e-3 -0.054 0-7e-3 -0.023-0.018-0.076-0.018-0.178 0-0.398-0.156-0.807-0.393-1.036-0.063-0.061-0.24-0.192-0.392-0.286s-0.306-0.203-0.34-0.25c-0.056-0.077-0.061-0.125-0.018-0.267 0.08-0.262 0.174-0.407 0.358-0.572 0.096-0.086 0.193-0.159 0.214-0.161 0.021-1e-3 -0.123-0.045-0.339-0.089-0.217-0.044-0.533-0.137-0.697-0.196-0.2991-0.109-0.703-0.336-0.857-0.5-0.0065-7e-3 -0.0122-0.012-0.0178-0.018 0.2206-0.879 0.8398-1.599 1.6608-1.947 0.172-0.072 0.349-0.122 0.536-0.16 0.093-0.019 0.189-0.026 0.285-0.036zm2.679 1.339c0.067 0.042 0.32 0.59 0.393 0.857 0.093 0.346 0.086 0.943 0 1.286-0.033 0.131-0.076 0.253-0.09 0.268s-0.065-0.072-0.125-0.179c-0.06-0.106-0.251-0.332-0.41-0.5-0.46-0.484-0.532-0.738-0.34-1.125 0.097-0.195 0.52-0.639 0.572-0.607z" fill="#4c3432"/>
</svg>

<svg xmlns="http://www.w3.org/2000/svg" width="24" height="24" version="1">
 <rect style="opacity:0.2" width="20" height="12" x="2" y="9.5" rx="1" ry="1"/>
 <path style="fill:#af2528" d="M 2,17 C 2,17.554 2.446,18 3,18 H 21 C 21.554,18 22,17.554 22,17 V 6 C 22,5.446 21.554,5 21,5 H 12 C 10.5,5 10,3 8.5,3 H 3 C 2.446,3 2,3.446 2,4"/>
 <rect style="opacity:0.2" width="20" height="12" x="2" y="8.5" rx="1" ry="1"/>
 <rect style="fill:#f1d9b5" width="16" height="8" x="4" y="7" rx="1" ry="1"/>
 <rect style="fill:#f2594b" width="20" height="12" x="2" y="9" rx="1" ry="1"/>
 <path style="opacity:0.1;fill:#f1d9b5" d="M 3,3 C 2.446,3 2,3.446 2,4 V 4.5 C 2,3.946 2.446,3.5 3,3.5 H 8.5 C 10,3.5 10.5,5.5 12,5.5 H 21 C 21.554,5.5 22,5.946 22,6.5 V 6 C 22,5.446 21.554,5 21,5 H 12 C 10.5,5 10,3 8.5,3 Z"/>
 <path style="fill:#4c3432" d="M 12,11 C 9.7908,11 8,12.791 8,15 8,17.209 9.7908,19 12,19 14.209,19 16,17.209 16,15 16,12.791 14.209,11 12,11 Z M 11.714,12.107 C 11.752,12.103 11.801,12.109 11.839,12.107 11.844,12.125 11.811,12.19 11.768,12.286 11.49,12.892 11.474,13.602 11.732,13.982 11.779,14.051 11.821,14.116 11.821,14.125 11.821,14.133 11.771,14.143 11.714,14.143 11.581,14.143 11.454,14.061 11.196,13.857 11.082,13.766 10.933,13.69 10.875,13.678 10.784,13.66 10.76,13.668 10.643,13.786 10.534,13.895 10.5,13.954 10.5,14.053 10.5,14.432 10.95,14.733 11.786,14.911 12.921,15.151 13.201,15.367 13.232,15.964 13.271,16.713 12.873,17.277 12,17.714 11.896,17.766 11.829,17.786 11.786,17.803 11.766,17.802 11.751,17.805 11.732,17.803 11.725,17.78 11.714,17.727 11.714,17.625 11.714,17.227 11.558,16.818 11.321,16.589 11.258,16.528 11.081,16.397 10.929,16.303 10.777,16.209 10.623,16.1 10.589,16.053 10.533,15.976 10.528,15.928 10.571,15.786 10.651,15.524 10.745,15.379 10.929,15.214 11.025,15.128 11.122,15.055 11.143,15.053 11.164,15.052 11.02,15.008 10.804,14.964 10.587,14.92 10.271,14.827 10.107,14.768 9.8079,14.659 9.404,14.432 9.25,14.268 9.2435,14.261 9.2378,14.256 9.2322,14.25 9.4528,13.371 10.072,12.651 10.893,12.303 11.065,12.231 11.242,12.181 11.429,12.143 11.522,12.124 11.618,12.117 11.714,12.107 Z M 14.393,13.446 C 14.46,13.488 14.713,14.036 14.786,14.303 14.879,14.649 14.872,15.246 14.786,15.589 14.753,15.72 14.71,15.842 14.696,15.857 14.682,15.872 14.631,15.785 14.571,15.678 14.511,15.572 14.32,15.346 14.161,15.178 13.701,14.694 13.629,14.44 13.821,14.053 13.918,13.858 14.341,13.414 14.393,13.446 Z"/>
</svg>
